img/icon-link.svg

<svg fill="none" height="24" viewBox="0 0 24 24" width="24" xmlns="http://www.w3.org/2000/svg"><g clip-rule="evenodd" fill="#fff" fill-rule="evenodd"><path d="m12.0423 8.72303c.2588.48791.073 1.09322-.4149 1.35197-.3315.1759-.6311.4034-.8962.6685-1.45084 1.4508-1.45084 3.8017 0 5.2525l2.8999 2.9c1.4508 1.4508 3.8018 1.4508 5.2526 0 1.4506-1.4508 1.4641-3.8151.0133-5.2659l-1.0165-1.0165c-.3906-.3905-.3906-1.0236 0-1.4142.3905-.3905 1.0236-.3905 1.4141 0l1.0165 1.0166c2.2319 2.2319 2.2319 5.8489 0 8.0808-2.2318 2.2319-5.8624 2.2452-8.0941.0133l-2.90004-2.9c-2.23186-2.2318-2.23186-5.8489 0-8.0808.4108-.41227.88274-.76093 1.37334-1.02112.4879-.25878 1.0932-.07305 1.352.41485z"/><path d="m3.70503 3.68953c2.23185-2.23187 5.84901-2.23187 8.08087 0l2.9 2.9c2.2318 2.23185 2.2318 5.84897 0 8.08087-.4056.4056-.8662.7521-1.3733 1.0212-.4879.2588-1.0933.073-1.352-.415-.2588-.4878-.0731-1.0932.4148-1.352.3315-.1757.6313-.4034.8963-.6684 1.4508-1.4508 1.4508-3.80166 0-5.25246l-2.9-2.9c-1.45082-1.45081-3.80166-1.45081-5.25246 0-1.43655 1.43655-1.45546 3.82367-.01334 5.26576l1.01654 1.0166c.39052.3905.39052 1.0236 0 1.4142-.39053.3905-1.02369.3905-1.41421 0l-1.01654-1.0166c-2.21286-2.21283-2.19397-5.88687.01334-8.09417z"/></g></svg>

<svg width="24" height="24" viewBox="0 0 24 24" fill="none" xmlns="http://www.w3.org/2000/svg">
<path fill-rule="evenodd" clip-rule="evenodd" d="M12.0423 8.72303C12.3011 9.21094 12.1153 9.81625 11.6274 10.075C11.2959 10.2509 10.9963 10.4784 10.7312 10.7435C9.28036 12.1943 9.28036 14.5452 10.7312 15.996L13.6311 18.896C15.0819 20.3468 17.4329 20.3468 18.8837 18.896C20.3343 17.4452 20.3478 15.0809 18.897 13.6301L17.8805 12.6136C17.4899 12.2231 17.4899 11.59 17.8805 11.1994C18.271 10.8089 18.9041 10.8089 19.2946 11.1994L20.3111 12.216C22.543 14.4479 22.543 18.0649 20.3111 20.2968C18.0793 22.5287 14.4487 22.542 12.217 20.3101L9.31696 17.4101C7.0851 15.1783 7.0851 11.5612 9.31696 9.3293C9.72776 8.91703 10.1997 8.56837 10.6903 8.30818C11.1782 8.0494 11.7835 8.23513 12.0423 8.72303Z" fill="white"/>
<path fill-rule="evenodd" clip-rule="evenodd" d="M3.70503 3.68953C5.93688 1.45766 9.55404 1.45766 11.7859 3.68953L14.6859 6.58953C16.9177 8.82138 16.9177 12.4385 14.6859 14.6704C14.2803 15.076 13.8197 15.4225 13.3126 15.6916C12.8247 15.9504 12.2193 15.7646 11.9606 15.2766C11.7018 14.7888 11.8875 14.1834 12.3754 13.9246C12.7069 13.7489 13.0067 13.5212 13.2717 13.2562C14.7225 11.8054 14.7225 9.45454 13.2717 8.00374L10.3717 5.10374C8.92088 3.65293 6.57004 3.65293 5.11924 5.10374C3.68269 6.54029 3.66378 8.92741 5.1059 10.3695L6.12244 11.3861C6.51296 11.7766 6.51296 12.4097 6.12244 12.8003C5.73191 13.1908 5.09875 13.1908 4.70823 12.8003L3.69169 11.7837C1.47883 9.57087 1.49772 5.89683 3.70503 3.68953Z" fill="white"/>
</svg>
